!!!COM: Bach, Johann Sebastian
!!!OTL@@DE: 321. Wir Christenleut'
!!!OTL@EN: We Christian folk
!!!SCA: BWV 40.3
**kern	**kern	**kern	**kern
*staff2	*staff2	*staff1	*staff1
*Iorgan	*Iorgan	*Iorgan	*Iorgan
!bass	!tenor	!alto	!sprno
*clefF4	*clefF4	*clefG2	*clefG2
*k[b-e-]	*k[b-e-]	*k[b-e-]	*k[b-e-]
*met(C)	*met(C)	*met(C)	*met(C)
*M4/4	*M4/4	*M4/4	*M4/4
*MM60	*MM60	*MM60	*MM60
8B-\L	8B-/L	8d\L	8g/L
8A\J	8c/J	8f#\J	8a/J
=1	=1	=1	=1
4G\	4d/	4g\	4b-/
4D\	8d/L	4f#\	4a/
.	8c/J	.	.
4E-;\	4B-;/	4g;\	4g;/
4C\	4c/	4e-\	4g/
=2	=2	=2	=2
4C#\	4G/	4en\	4b-/
4D\	4d/	4f#\	4a/
4GG;\	4B-;/	4d;\	4g;/
4BB-\	8Fn/L	8d\L	4dd/
.	8G/J	8en\J	.
=3	=3	=3	=3
4F\	4A/	8f\L	4cc/
.	.	8e-\J	.
4G\	8B-/L	8d\L	4b-/
.	8c/J	8en\J	.
4D;\	4d;/	4f#;\	4a;/
4D\	4d/	4f#\	4a/
=4	=4	=4	=4
8G\L	4d/	4g\	4b-/
8F\J	.	.	.
8E-\L	4e-/	4g\	4b-/
8D\J	.	.	.
4C\	8e-/L	4g\	4cc/
.	8d/J	.	.
8F\L	4c/	4a\	4cc/
8E-\J	.	.	.
=5	=5	=5	=5
8D\L	4f/	4b-\	4dd/
8C\J	.	.	.
8BB-\L	4g/	4b-\	4dd/
8AA\J	.	.	.
8GG\L	4e-/	4a\	4cc/
8FF#\J	.	.	.
4GG\	4d/	4g\	4b-/
=6	=6	=6	=6
!!linebreak; 2
4C\	4e-/	4g\	2a/
4D\	8d/L	4f#\	.
.	8c/J	.	.
4GG;\	4B-;/	4g;\	4g;/
4BB-\	4B-/	4fn\	4dd/
=7	=7	=7	=7
4F\	4A/	4f\	4cc/
4G\	4G/	4d\	4b-/
4D;\	4F#;/	4d;\	4a;/
4B-\	4B-/	4fn\	4dd/
=8	=8	=8	=8
4En\	8B-/L	4g\	4cc/
.	8G/J	.	.
4C\	4c/	8f\L	4b-/
.	.	8en\J	.
4F;\	4c;/	4f;\	4a;/
4A\	4c#/	4en\	4a/
=9	=9	=9	=9
4D\	8d/L	4f#\	4b-/
.	8cn/J	.	.
4E-\	8B-/L	4g\	4b-/
.	8A/J	.	.
4En\	8G/L	4g\	4cc/
.	8g/J	.	.
4F\	8f/L	4a\	4cc/
.	8e-/J	.	.
=10	=10	=10	=10
4F#\	4d/	8a\L	4dd/
.	.	8cc\J	.
4G\	4d/	8b-\L	4dd/
.	.	8a\J	.
4E-\	8G/L	8g\L	4cc/
.	8A/J	8f#\J	.
4D\	8B-/L	4g\	4b-/
.	8G/J	.	.
=11	=11	=11	=11
4C#\	4en/	4g\	2a/
4D\	8d/L	4f#\	.
.	8c/J	.	.
4GG;\	4Bn;/	4d;\	4g;/
==	==	==	==
*-	*-	*-	*-
!!!ENC: Craig Stuart Sapp
!!!END: 2004/12/06/
!!chor2scor: -l 2 -s 0.6 -o %b.pmx
